!!!COM: Ce/cile Chaminade
!!!CNT: Francais
!!!TXO: Francais
!!!OTL: "Amour d'automne"
!!!LYR: Silvestre, Armand
!!!ENC: Amanda Harris
!!!YOR: Album of Songs, Volume 1
!!!YOR: Da Capo Press
!!!ODT: 1889/
!!NB: Vocal melody and text encoded
**kern	**silbe
*clefG2	*
*k[b-e-a-]	*
*M2/4	*
*MM[72]	*
=4	=4
4r	.
{8e-	{L'a^pre
8b-	hi-
=5	=5
4b-	-ver
16a-	a
16g	pas-
16a-	-se/
16cc	sur
=6	=6
[4b-	nous
16b-]	|
16e-	Sans
16g	tou-
16b-	|
=7	=7
8a-	-cher
8g	a\
8f	no-
16a-	-tre
16a-	ten-
=8	=8
24g	-dres-
24a-	|
24g	|
24f	|
24g	|
24f	|
4e-}	-se.}
=9	=9
4r	.
{8e-	{L'an
8b-	nou-
=10	=10
4b-	-veau
16a-	vers
16g	A-
16a-	-vril
16cc	s'em-
=11	=11
4.b-	-pres-
8cc	-se Et
=12	=12
16dd-	me
16b-	re-
16g-	-trou-
16d-	-ve a\
8e-	vos
24a-	ge-
24b-	|
24a-	|
=13	=13
4g-}	-noux.}
4r	.
=15	=15
4r	.
8r	.
{8B-	{Que
=16	=16
8cc	vo-
16cc	-tre
16cc	beau-
8cc	-te\
16cc	ne
16cc	s'e/-
=17	=17
[4B-	-ton-
8B-]	-ne
16B-	Si
16B-	mes
=18	=18
8cc	voeux
16cc	sont
16cc	res-
8.cc	-te/s
16cc	cons-
=19	=19
4.dd}	-tants,}
{8b-	{Ma-
=20	=20
8ee-	-da-
8b-	-me,
16g	voi-
16f	-ci
16g	le
16a-	prin-
=21	=21
[4b-	-temps,
16b-]	|
16b-	Nous
16a-	nous
16g	ai-
=22	=22
16cc	-ma^-
16a-	-mes
16g	en
16f	au-
4dd	-tom-
=23	=23
4ee-}	-ne.}
4r	.
=27	=27
4r	.
{8e-	{Les
8b-	ro-
=28	=28
4b-	-siers
16a-	n'av-
16g	-aient
16a-	plus
16cc	de
=29	=29
[4b-	fleurs
16b-]	|
16e-	Et
16g	les
16b-	|
=30	=30
8a-	soirs
8g	ha^-
8f	-taient
16a-	leur
16a-	ve-
=31	=31
24g	-nu-
24a-	|
24g	|
24f	|
24g	|
24f	|
4e-}	-e.}
=32	=32
4r	.
{8e-	{Les
16e-	hi-
16b-	-ron-
=33	=33
8b-	-del-
8b-	-les
16a-	sous
16g	|
16a-	la
16cc	|
=34	=34
4b-	nu-
8b-	-e
16cc	S'en-
16cc	-fuy-
=35	=35
16dd-	-aient
16b-	|
16g-	vers
16d-	des
8e-	cieux
24a-	meil-
24b-	|
24a-	|
=36	=36
4g-}	-leurs.}
4r	.
=38	=38
4r	.
16r	.
{16B-	{Les
16B-	vi-
16B-	-gne-
=39	=39
8.cc	-rons
16cc	fe^t-
8.cc	-aient
16cc	la
=40	=40
4B-	ton-
8B-	-ne
16B-	Et
16B-	nos
=41	=41
8.cc	coeurs
16cc	e/-
8cc	-taient
16cc	pal-
16cc	-pi-
=42	=42
4.dd}	-tants.}
{8b-	{Ma-
=43	=43
8ee-	-da-
8b-	-me,
16g	voi-
16f	-ci
16g	le
16a-	prin-
=44	=44
[4b-	-temps
16b-]	|
16b-	M'ai-
16a-	-me-
16g	-rez-
=45	=45
16cc	-vous
16a-	com-
16g	me en
16f	au-
4dd	-tom-
=46	=46
4ee-}	-ne?}
4r	.
=50	=50
4r	.
16r	.
{16e-	{Sur
16e-	les
16b-	ro-
=51	=51
4b-	siers
16a-	de
16g-	|
16a-	nei-
16cc	-ge
=52	=52
[4b-	las
16b-]	|
16e-	Re-
16g	|
16b-	|
=53	=53
8a-	-nai^t
16g	la
16g	par-
8f	-ru-
16a-	-re
16a-	des
=54	=54
24g	ro-
24a-	|
24g	|
24f	|
24g	|
24f	|
4e-}	-ses.}
=55	=55
4r	.
16r	.
{16e-	{Le
16e-	glas
16b-	joy-
=56	=56
4b-	-eux
16a-	des
16g	|
16a-	temps
16cc	mo-
=57	=57
4b-	-ro-
8b-	-ses
8cc	Sonne
=58	=58
16dd-	aux
16b-	clo-
16g-	-chet-
16d-	-tes
8e-	des
24a-	li-
24b-	|
24a-	|
=59	=59
4g-}	-las.}
4r	.
=61	=61
4r	.
8r	.
{8B-	{Au
=62	62
8cc	lieu
16cc	d'un
16cc	ha-
8cc	-bit
16cc	mo-
16cc	-no-
=63	=63
[4B-	-to-
8B-]	-ne
8B-	Le
=64	=64
8.cc	ciel
16cc	en
16cc	por-
16cc	-te
16cc	d'e/-
16cc	-cla-
=65	=65
4.dd}	-tants.}
{8b-	{Ma-
=66	=66
8ee-	-da-
8b-	-me,
16g	voi-
16f	-ci
16g	le
16a-	prin-
=67	=67
[4b-	-temps,
16b-]	|
16b-	Ai-
16a-	mons
16g	nous
=68	=68
16cc	donc
16a-	plus
16g	qu'en
16f	au-
4dd	-tom-
=69	=69
4ee-}	-ne.}
4r	.
*-	*-
